assets/fonts/icomoon.svg

<?xml version="1.0" standalone="no"?>
<!DOCTYPE svg PUBLIC "-//W3C//DTD SVG 1.1//EN" "http://www.w3.org/Graphics/SVG/1.1/DTD/svg11.dtd" >
<svg xmlns="http://www.w3.org/2000/svg">
<metadata>Generated by IcoMoon</metadata>
<defs>
<font id="icomoon" horiz-adv-x="512">
<font-face units-per-em="512" ascent="480" descent="-32" />
<missing-glyph horiz-adv-x="512" />
<glyph unicode="&#x20;" d="" horiz-adv-x="256" />
<glyph unicode="&#xe600;" d="M512 176l-96 96v144h-64v-80l-96 96-256-256v-16h64v-160h160v96h64v-96h160v160h64z" />
<glyph unicode="&#xe601;" d="M496.131 44.302l-121.276 103.147c-12.537 11.283-25.945 16.463-36.776 15.963 28.628 33.534 45.921 77.039 45.921 124.588 0 106.039-85.961 192-192 192-106.038 0-192-85.961-192-192 0-106.039 85.961-192 192-192 47.549 0 91.054 17.293 124.588 45.922-0.5-10.831 4.68-24.239 15.963-36.776l103.147-121.276c17.661-19.623 46.511-21.277 64.11-3.678s15.946 46.449-3.677 64.11zM192 160c-70.692 0-128 57.308-128 128s57.308 128 128 128 128-57.308 128-128-57.307-128-128-128z" />
<glyph unicode="&#xe602;" d="M256 480c141.385 0 256-114.615 256-256 0-130.547-97.719-238.265-224-254.013v190.013h88l8 64h-96v32c0 17.673 14.327 32 32 32h64v64h-64c-53.020 0-96-42.98-96-96v-32h-48v-64h48v-190.013c-126.281 15.748-224 123.466-224 254.013 0 141.385 114.615 256 256 256z" />
<glyph unicode="&#xe603;" d="M256 480c-141.385 0-256-114.615-256-256s114.615-256 256-256 256 114.615 256 256-114.615 256-256 256zM403.121 299.456c0.146-3.254 0.221-6.528 0.221-9.819 0-100.311-76.354-215.982-215.979-215.982-42.868 0-82.768 12.568-116.363 34.107 5.938-0.704 11.981-1.063 18.108-1.063 35.565 0 68.295 12.138 94.275 32.497-33.217 0.61-61.25 22.561-70.912 52.716 4.637-0.884 9.392-1.361 14.283-1.361 6.923 0 13.629 0.928 19.999 2.662-34.726 6.976-60.893 37.656-60.893 74.434 0 0.32 0 0.639 0.008 0.955 10.235-5.685 21.939-9.1 34.382-9.494-20.37 13.611-33.77 36.846-33.77 63.184 0 13.911 3.744 26.952 10.278 38.162 37.439-45.927 93.374-76.146 156.462-79.314-1.294 5.559-1.965 11.351-1.965 17.302 0 41.92 33.99 75.906 75.909 75.906 21.833 0 41.562-9.218 55.409-23.97 17.29 3.404 33.537 9.721 48.206 18.42-5.668-17.727-17.705-32.603-33.376-41.997 15.355 1.834 29.984 5.916 43.597 11.952-10.175-15.224-23.045-28.593-37.879-39.297z" />
<glyph unicode="&#xe604;" d="M256 480c-141.385 0-256-114.615-256-256s114.615-256 256-256 256 114.615 256 256-114.615 256-256 256zM160 96c-17.673 0-32 14.327-32 32s14.327 32 32 32 32-14.327 32-32-14.327-32-32-32zM248 96c0 66.168-53.832 120-120 120v48c92.636 0 168-75.364 168-168h-48zM344 96c0 57.695-22.468 111.938-63.265 152.735-40.797 40.797-95.039 63.265-152.735 63.265v48c70.517 0 136.813-27.461 186.677-77.324 49.862-49.863 77.323-116.159 77.323-186.676h-48z" />
</font></defs></svg>

<?xml version="1.0" standalone="no"?>
<!DOCTYPE svg PUBLIC "-//W3C//DTD SVG 1.1//EN" "http://www.w3.org/Graphics/SVG/1.1/DTD/svg11.dtd" >
<svg xmlns="http://www.w3.org/2000/svg">
<metadata>
This is a custom SVG font generated by IcoMoon.
<iconset grid="16"></iconset>
</metadata>
<defs>
<font id="icomoon" horiz-adv-x="512" >
<font-face units-per-em="512" ascent="480" descent="-32" />
<missing-glyph horiz-adv-x="512" />
<glyph unicode="&#xe000;" d="M 512.00,176.00L 416.00,272.00L 416.00,416.00L 352.00,416.00L 352.00,336.00L 256.00,432.00L0.00,176.00L0.00,160.00L 64.00,160.00L 64.00,0.00L 224.00,0.00L 224.00,96.00L 288.00,96.00L 288.00,0.00L 448.00,0.00L 448.00,160.00L 512.00,160.00 z"  />
<glyph unicode="&#xe001;" d="M 256.00,480.00C 114.615,480.00,0.00,365.385,0.00,224.00s 114.615-256.00, 256.00-256.00s 256.00,114.615, 256.00,256.00S 397.385,480.00, 256.00,480.00z M 160.00,96.00
	c-17.673,0.00-32.00,14.327-32.00,32.00s 14.327,32.00, 32.00,32.00s 32.00-14.327, 32.00-32.00S 177.673,96.00, 160.00,96.00z M 248.00,96.00c0.00,66.168-53.832,120.00-120.00,120.00l0.00,48.00 
	c 92.636,0.00, 168.00-75.364, 168.00-168.00L 248.00,96.00 z M 344.00,96.00c0.00,57.695-22.468,111.938-63.265,152.735C 239.938,289.532, 185.696,312.00, 128.00,312.00l0.00,48.00 
	c 70.517,0.00, 136.813-27.461, 186.677-77.324C 364.539,232.813, 392.00,166.517, 392.00,96.00L 344.00,96.00 z"  />
<glyph unicode="&#xe002;" d="M 256.00,480.00 C 397.385,480.00 512.00,365.385 512.00,224.00 C 512.00,93.453 414.281-14.265 288.00-30.013 L 288.00,160.00 L 376.00,160.00 L 384.00,224.00 L 288.00,224.00 L 288.00,256.00 C 288.00,273.673 302.327,288.00 320.00,288.00 L 384.00,288.00 L 384.00,352.00 L 320.00,352.00 C 266.98,352.00 224.00,309.02 224.00,256.00 L 224.00,224.00 L 176.00,224.00 L 176.00,160.00 L 224.00,160.00 L 224.00,33.50 L 224.00-23.935 L 224.00-30.013 C 97.719-14.265 0.00,93.453 0.00,224.00 C 0.00,365.385 114.615,480.00 256.00,480.00 Z"  />
<glyph unicode="&#xe003;" d="M 256.00,480.00C 114.615,480.00,0.00,365.385,0.00,224.00s 114.615-256.00, 256.00-256.00s 256.00,114.615, 256.00,256.00S 397.385,480.00, 256.00,480.00z M 403.121,299.456
	c 0.146-3.254, 0.221-6.528, 0.221-9.819c0.00-100.311-76.354-215.982-215.979-215.982c-42.868,0.00-82.768,12.568-116.363,34.107
	c 5.938-0.704, 11.981-1.063, 18.108-1.063c 35.565,0.00, 68.295,12.138, 94.275,32.497c-33.217,0.61-61.25,22.561-70.912,52.716
	c 4.637-0.884, 9.392-1.361, 14.283-1.361c 6.923,0.00, 13.629,0.928, 19.999,2.662c-34.726,6.976-60.893,37.656-60.893,74.434
	c0.00,0.32,0.00,0.639, 0.008,0.955c 10.235-5.685, 21.939-9.10, 34.382-9.494c-20.37,13.611-33.77,36.846-33.77,63.184
	c0.00,13.911, 3.744,26.952, 10.278,38.162c 37.439-45.927, 93.374-76.146, 156.462-79.314c-1.294,5.559-1.965,11.351-1.965,17.302
	c0.00,41.92, 33.99,75.906, 75.909,75.906c 21.833,0.00, 41.562-9.218, 55.409-23.97c 17.29,3.404, 33.537,9.721, 48.206,18.42
	c-5.668-17.727-17.705-32.603-33.376-41.997c 15.355,1.834, 29.984,5.916, 43.597,11.952
	C 430.825,323.529, 417.955,310.16, 403.121,299.456z"  />
<glyph unicode="&#xe004;" d="M 512.00,184.778 L 256.00,383.491 L 0.00,184.777 L 0.00,265.796 L 256.00,464.509 L 512.00,265.795 ZM 448.00,192.00 L 448.00,0.00 L 320.00,0.00 L 320.00,128.00 L 192.00,128.00 L 192.00,0.00 L 64.00,0.00 L 64.00,192.00 L 256.00,336.00 Z"  />
<glyph unicode="&#x20;" horiz-adv-x="256" />
<glyph class="hidden" unicode="&#xf000;" d="M0,480L 512 -32L0 -32 z" horiz-adv-x="0" />
</font></defs></svg>
